X: 3
T: Cronin's
T: The Belles Of Tipperary
M: 4/4
L: 1/8
R: reel
K: Gmaj
~G3A Bd~d2|gabg aged|egdg egdg|egdG BAAB|
~G3A Bd~d2|gabg aged|egdg egdg|1 bgag egg2:|2 bgag egge||
|:~d3e dB~B2|cBAc BGGd|egdg egdg|egdG BAAB|
~d3e dB~B2|cBAc BGGd|egdg egdg|1 bgag egge:|2 bgag egg2||
